!!!COM: Music21
!!!OTL: Marcha Procesional
!!!OMV: pezas_marchas_marcha-procesional_marcha-procesional-partitura.musicxml
**kern
*I"Bagpipes
*I'Bag
*clefG^2
*k[]
*M2/4
=1
!LO:TX:a:t=Andante
*MM96
!LO:TX:a:t=[quarter]=96
4.r
16ggLL
16eeJJ
=||
8.ccL
16ddJk
8eeL
8ffJ
=
8ggL
16ggL
16eeJJ
8ccL
8eeJ
=
8ddL
16ddL
16eeJJ
16ffLL
16ee
16ff
16aaJJ
=
8.ggL
16eeJk
8ccL
16ggL
16eeJJ
=
8.ccL
16ddJk
8eeL
8ffJ
=
8ggL
16ggL
16eeJJ
8ccL
8eeJ
=
8ddL
16ddL
16eeJJ
16ffLL
16ee
16ff
16ddJJ
!!linebreak:original
=
4.cc
16ggLL
16eeJJ
=||
8.ccL
16ddJk
8eeL
8ffJ
=
8ggL
16ggL
16eeJJ
8ccL
8eeJ
=
8ddL
16ddL
16eeJJ
16ffLL
16ee
16ff
16aaJJ
=
8.ggL
16eeJk
8ccL
16ggL
16eeJJ
=
8.ccL
16ddJk
8eeL
8ffJ
=
8ggL
16ggL
16eeJJ
8ccL
8eeJ
=
8ddL
16ddL
16eeJJ
16ffLL
16ee
16ff
16ddJJ
!!linebreak:original
=
4.cc
16eeLL
16ffJJ
=||
8.ggL
16cccJk
8bbL
8aaJ
=
8ggL
16ggL
16eeJJ
16ggLL
16ee
16gg
16eeJJ
=
8ffL
16ffL
16ddJJ
16ffLL
16dd
16ff
16ddJJ
=
16eeLL
16ff
16dd
16eeJJ
16ccLL
16dd
16ee
16ffJJ
=
8.ggL
16cccJk
8bbL
8aaJ
!!linebreak:original
=
8ggL
16ggL
16eeJJ
16ggLL
16ee
16gg
16eeJJ
=
8ffL
16ffL
16ddJJ
16ffLL
16dd
16ff
16ddJJ
=
4.cc
16eeLL
16ffJJ
=||
8.ggL
16cccJk
8bbL
8aaJ
=
8ggL
16ggL
16eeJJ
16ggLL
16ee
16gg
16eeJJ
=
8ffL
16ffL
16ddJJ
16ffLL
16dd
16ff
16ddJJ
=
16eeLL
16ff
16dd
16eeJJ
16ccLL
16dd
16ee
16ffJJ
!!linebreak:original
=
8.ggL
16cccJk
8bbL
8aaJ
!!linebreak:original
=
8ggL
16ggL
16eeJJ
16ggLL
16ee
16gg
16eeJJ
=
8ffL
16ffL
16ddJJ
16ffLL
16dd
16ff
16ddJJ
=
4.cc
16ggLL
16eeJJ
==
*-
